kora/status/symbolic/location-services-active-symbolic.svg

<svg xmlns="http://www.w3.org/2000/svg" width="16" height="16" version="1.1">
 <path style="fill:#dfdfdf" d="M 8 1 A 5 4.9989288 0 0 0 3 5.9980469 C 3 6.1700101 3.01425 6.3300829 3.03125 6.4980469 C 3.04525 6.6650111 3.06675 6.834082 3.09375 6.9980469 C 3.66575 10.510294 6 13.000428 8 15 C 10 13.000428 12.33425 10.511294 12.90625 6.9980469 C 12.93325 6.834082 12.95575 6.6650111 12.96875 6.4980469 C 12.98575 6.3300829 13 6.1700101 13 5.9980469 A 5 4.9989288 0 0 0 8 1 z M 8 4 A 2 2 0 0 1 8 8 A 2 2 0 0 1 8 4 z"/>
</svg>

<svg xmlns="http://www.w3.org/2000/svg" style="clip-rule:evenodd;fill-rule:evenodd;stroke-linejoin:round;stroke-miterlimit:2" version="1.1" viewBox="0 0 16 16">
 <defs>
  <style id="current-color-scheme" type="text/css">
   .ColorScheme-Text { color:#dfdfdf; } .ColorScheme-Highlight { color:#4285f4; } .ColorScheme-NeutralText { color:#ff9800; } .ColorScheme-PositiveText { color:#4caf50; } .ColorScheme-NegativeText { color:#f44336; }
  </style>
 </defs>
 <path style="fill-rule:nonzero;fill:currentColor;" class="ColorScheme-Text" d="m8 1c-2.743-0-5 2.256-5 4.998 0 0.172 0.014 0.332 0.031 0.5 0.014 0.167 0.036 0.336 0.063 0.5 0.572 3.512 2.906 6.002 4.906 8.002 2-2 4.334-4.489 4.906-8.002 0.027-0.164 0.05-0.333 0.063-0.5 0.017-0.168 0.031-0.328 0.031-0.5-0-2.742-2.257-4.998-5-4.998zm0 3c1.097 0 2 0.903 2 2s-0.903 2-2 2-2-0.903-2-2 0.903-2 2-2z"/>
</svg>
